X:3
T:McFarley's
R:reel
M:2/2
L:1/8
I:abc2nwc
K:D
dD D2EDB,E|D2FA BAFA|dDcD BDAF|DEFD EDB,D|FD D2EDB,E|
D2FA BAFA| (3Bcd ec dBAF|[1EDEF DFAc:|[2EDEF D2ag||
|:fgab afde|fdad bdad|efga ge=cd|e=cgc acge|fgaf bfaf|
gfeg fdB^c|defd ecdB|[1AFEF D2ag:|[2AFEF D2 (3ABc||
